X:1
T:Middletown Hornpipe
M:2/4
L:1/8
R:Hornpipe
B:Elias Howe – Musician’s Omnibus Nos. 6 & 7 (Boston, 1880-1882, p. 597)
B:  http://ks4.imslp.net/files/imglnks/usimg/c/c7/IMSLP601433-PMLP562790-ONeill_Rare_Medium_M40_M8_v6.7_text.pdf
Z:AK/Fiddler’s Companion
K:F
c/B/|A/Fc/A/ f/c/a/f/|g/a/b/g/ f/e/d/c/|d/B/A/B/ G/A/F/G/|E/F/D/E/ Cc/B/|
A/F/c/A/ f/c/a/f/|g/a/b/g/ f/e/d/c/|d/B/A/B/ c/f/e/g/|fFF:|
|:c|g/a/b/g/ e/c/d/e/|f/e/f/c/ a/g/a/f/|g/a/b/g/ e/c/d/e/|f/e/f/d/ c/A/B/G/|
C/F/A/c/ D/G/B/d/|E/G/c/e/ f/e/f/d/|c/f/B/f/ A/f/G/f/|fFF:|]

